X:18032
T:Red Lion Hornpipe
R:Triple Hornpipe
C:Trad.
O:England, Kent
Z:Paul Hardy's Session Tunebook 2015 (see www.paulhardy.net). Creative Commons cc by-nc-sa licenced.
M:3/2
L:1/8
Q:1/2=80
K:D
%%MIDI beatstring fpppmpppmppp
%%MIDI gchord czfzczfzczfz
"D"dfdf FGAF "Em"G2E2|"D"dfdf "A"Adce "D"d2D2|dfdf FGAF "A7"G2a2|"Em"gfed "A"Adce "D"d2D2:|
|:"D"dfaf dfed "A"c2A2|"D"FAdA "G"BABG"D"F2D2|dfaf dfed "A"c2A2|"D"FAdF "A"Edce "D"d4:|

